dist/svg/u1F193.svg

<?xml version="1.0" encoding="UTF-8"?><svg id="a" xmlns="http://www.w3.org/2000/svg" viewBox="0 0 40 40"><g><rect x="3.5" y="3.5" width="33" height="33" rx="8" ry="8" fill="#4592fb"/><g><path d="M13.18,15.448v1.596h-3.544v2.494h3.144v1.607h-3.144v3.25h-1.729V15.448h5.272Z" fill="#fff"/><path d="M15.803,21.218v3.178h-1.729V15.448h3.251c1.783,0,2.853,1.2,2.853,2.915,0,1.235-.659,2.171-1.534,2.603l2.021,3.43h-1.956l-1.739-3.178h-1.166Zm1.015-1.535c1.049,0,1.578-.456,1.578-1.331,0-.84-.529-1.332-1.578-1.332h-1.015v2.663h1.015Z" fill="#fff"/><path d="M21.191,24.396V15.448h5.152v1.596h-3.424v2.099h3.035v1.607h-3.035v2.051h3.607v1.595h-5.336Z" fill="#fff"/><path d="M27.38,24.396V15.448h5.152v1.596h-3.424v2.099h3.035v1.607h-3.035v2.051h3.607v1.595h-5.336Z" fill="#fff"/></g></g><rect width="40" height="40" fill="none"/></svg>

<svg id="Layer_1" data-name="Layer 1" xmlns="http://www.w3.org/2000/svg" viewBox="0 0 40 40"><defs><style>.cls-1{fill:#4592fb;}.cls-2{fill:#fff;}.cls-3{fill:none;}</style></defs><rect class="cls-1" x="3.5" y="3.5" width="33" height="33" rx="8"/><path class="cls-2" d="M13.18,15.448v1.6H9.636v2.494h3.143v1.608H9.636V24.4H7.907V15.448Z"/><path class="cls-2" d="M15.8,21.218V24.4H14.074V15.448h3.251a2.706,2.706,0,0,1,2.853,2.915,2.828,2.828,0,0,1-1.534,2.6l2.02,3.43H18.708l-1.739-3.178Zm1.014-1.535c1.049,0,1.579-.456,1.579-1.331,0-.84-.53-1.332-1.579-1.332H15.8v2.663Z"/><path class="cls-2" d="M21.191,24.4V15.448h5.153v1.6H22.92v2.1h3.035V20.75H22.92V22.8h3.607v1.6Z"/><path class="cls-2" d="M27.38,24.4V15.448h5.152v1.6H29.108v2.1h3.036V20.75H29.108V22.8h3.608v1.6Z"/><rect class="cls-3" width="40" height="40"/></svg>
